X: 1
T:May-Pole -- Reel
M:2/4
L:1/16
R:reel
B:Ryan's Mammoth Collection
Z:Contributed by Ray Davies,  ray:davies99.freeserve.co.uk
K:G
u((3def)|gagf gdBd|cedc Bdd2|cedc BdcB|ABcd gfed|
gagf gdBd|cedc Bdd2|cedc BdcB|AcBA G2:|
bc'b^a bgeg|fagf gfe2|bc'b^a bgeg|fagf e2fg|
aba^g afdf|egfe fed2|aba^g afdf|egfe d2z2|]
d2ef gab2|c'2ba d'bg2|e2fg d2gb|abag fed2|
d2ef gab2|c'2ba d'bg2|e2fg d2fg|bagf g2|]"D.C."
